public/img/swatchbook-solid.svg

<svg width="512" height="512" viewBox="0 0 512 512" fill="none" xmlns="http://www.w3.org/2000/svg">
<g clip-path="url(#clip0_111_14)">
<path d="M0 32C0 14.3 14.3 0 32 0H160C177.7 0 192 14.3 192 32V416C192 469 149 512 96 512C43 512 0 469 0 416V32ZM223.6 425.9C223.9 422.6 224 419.3 224 416V154L299.4 78.6C311.9 66.1 332.2 66.1 344.7 78.6L435.2 169.1C447.7 181.6 447.7 201.9 435.2 214.4L223.6 425.9ZM182.8 512L374.8 320H480C497.7 320 512 334.3 512 352V480C512 497.7 497.7 512 480 512H182.8ZM128 64H64V128H128V64ZM64 192V256H128V192H64ZM96 440C102.365 440 108.47 437.471 112.971 432.971C117.471 428.47 120 422.365 120 416C120 409.635 117.471 403.53 112.971 399.029C108.47 394.529 102.365 392 96 392C89.6348 392 83.5303 394.529 79.0294 399.029C74.5286 403.53 72 409.635 72 416C72 422.365 74.5286 428.47 79.0294 432.971C83.5303 437.471 89.6348 440 96 440Z" fill="#FED36F"/>
</g>
<defs>
<clipPath id="clip0_111_14">
<rect width="512" height="512" fill="white"/>
</clipPath>
</defs>
</svg>

<svg xmlns="http://www.w3.org/2000/svg" viewBox="0 0 512 512"><!--!Font Awesome Free 6.5.1 by @fontawesome - https://fontawesome.com License - https://fontawesome.com/license/free Copyright 2024 Fonticons, Inc.--><path d="M0 32C0 14.3 14.3 0 32 0H160c17.7 0 32 14.3 32 32V416c0 53-43 96-96 96s-96-43-96-96V32zM223.6 425.9c.3-3.3 .4-6.6 .4-9.9V154l75.4-75.4c12.5-12.5 32.8-12.5 45.3 0l90.5 90.5c12.5 12.5 12.5 32.8 0 45.3L223.6 425.9zM182.8 512l192-192H480c17.7 0 32 14.3 32 32V480c0 17.7-14.3 32-32 32H182.8zM128 64H64v64h64V64zM64 192v64h64V192H64zM96 440a24 24 0 1 0 0-48 24 24 0 1 0 0 48z"/></svg>
